X:1
T:Title
%%score 1 { 2 | ( 3 4 ) }
L:1/8
Q:1/4=110
M:4/4
K:F
V:1 treble nm="Grand Piano, Soprano"
V:2 bass nm="Choir Pad, Herr und Ältster Deiner"
V:3 bass 
V:4 bass 
V:1
 [CF]2 [DF]2 D2 [DG]2 | [CF]2 [CE]2 [A,F]2 [Cc]2 | [CA]4 [CF]4 | [DF]2 [CF]2 D2 [FA]2 | %4
w: Generated~by~NoteWorthy~Composer * * *||||
 [EG]2 [EG]2 F4 | [CF]2 [DF]2 D2 [DG]2 | [CF]2 [CE]2 [A,F]2 [Cc]2 | [CA]4 [CF]4 | %8
w: ||||
 [DF]2 [CF]2 D2 [FA]2 | [EG]2 [EG]2 F4 | [CE]2 [CF]2 [CG]2 [Ec]2 | [Fc]2 [DB]2 [EB]2 [FA]2 | %12
w: ||||
 [FA]4 [EG]4 | [CE]2 [CF]2 [CG]2 [Ec]2 | [Fc]2 [DB]2 [EB]2 [FA]2 | [FA]4 [EG]4 | %16
w: ||||
 [CF]2 [DF]2 D2 [GB]2 | [FA]2 [EG]2 [DF]4 | [DF]2 [CF]2 [B,D]2 [DB]2 | [CA]4 [B,G]4 | [A,F]8 |] %21
w: |||||
V:2
 A,2 A,2 B,2 B,2 | A,2 G,2 F,2 G,2 | F,4 A,4 | B,2[K:treble] C2 B,2 D2 | C2 B,2[K:bass] A,4 | %5
 A,2 A,2 B,2 B,2 | A,2 G,2 F,2 G,2 | F,4 A,4 | B,2[K:treble] C2 B,2 D2 | C2 B,2[K:bass] A,4 | %10
 G,2 A,2 C2 G,2 | A,2 B,2[K:treble] C2 C2 | C4 C4 | G,2[K:bass] A,2 C2 G,2 | A,2 B,2 C2 C2 | %15
 C4 C4 | F,2 A,2 B,2 D2 | C2 C2 A,4 | B,2 F,2 F,2 G,2- | G,4 z4 | F,8 |] %21
V:3
 F,2 D,2 B,,2 G,,2 | A,,2 C,2 D,2 E,2 | z4 F,,4 | B,,2 A,,2 B,,2 G,,2 | C,2 C,2 F,,4 | %5
 F,2 D,2 B,,2 G,,2 | A,,2 C,2 D,2 E,2 | z4 F,,4 | B,,2 A,,2 B,,2 G,,2 | C,2 C,2 F,,4 | %10
 C,2 F,2 E,2 C,2 | F,2 G,2 C,2 F,2 | F,4 C,4 | C,2 F,2 E,2 C,2 | F,2 G,2 C,2 F,2 | F,4 C,4 | %16
 A,,2 D,2 B,,2 G,,2 | C,2 C,2 D,4 | B,,2 A,,2 B,,2 G,,2 | C,4 z2 E,2 | F,,8 |] %21
V:4
 x8 | x8 | x8 | x8 | x8 | x8 | x8 | x8 | x8 | x8 | x8 | x8 | x8 | x8 | x8 | x8 | x8 | x8 | x8 | %19
 z4 C,4 | x8 |] %21

